app/img/bag-about.svg

<svg width="32" height="32" viewBox="0 0 32 32" fill="none" xmlns="http://www.w3.org/2000/svg">
<path d="M17.2321 18.332V17.774C17.2321 17.0935 16.6806 16.542 16.0006 16.542C15.3201 16.542 14.7686 17.0935 14.7686 17.774V18.332C14.7686 19.0125 15.3201 19.564 16.0006 19.564C16.6801 19.564 17.2321 19.0125 17.2321 18.332Z" fill="#F0145A"/>
<path d="M18.0769 19.0136C17.8039 19.9071 16.9814 20.5631 16.0004 20.5631C15.0189 20.5631 14.1964 19.9071 13.9234 19.0136H5.43886C4.90336 19.0136 4.39736 18.8891 3.94336 18.6731V24.3066C3.94336 25.4066 4.84336 26.3066 5.94336 26.3066H26.0564C27.1564 26.3066 28.0564 25.4066 28.0564 24.3066V18.6736C27.6019 18.8896 27.0964 19.0141 26.5609 19.0141H18.0769V19.0136Z" fill="#F0145A"/>
<path d="M26.4775 8.8976H21.677C21.387 7.0846 19.8165 5.6936 17.923 5.6936H14.0765C12.183 5.6936 10.613 7.0846 10.3225 8.8976H5.52247C4.37647 8.8976 3.43896 9.7976 3.43896 10.8976V15.5141C3.43896 16.6186 4.33447 17.5141 5.43897 17.5141H13.829C13.8575 16.9386 14.1045 16.4216 14.495 16.0476C14.507 16.0361 14.521 16.0271 14.5335 16.0161C14.62 15.9366 14.71 15.8616 14.8085 15.7966C14.8435 15.7731 14.8835 15.7571 14.92 15.7361C15.001 15.6896 15.081 15.6411 15.1685 15.6051C15.237 15.5766 15.311 15.5601 15.383 15.5386C15.445 15.5201 15.504 15.4956 15.5685 15.4826C15.708 15.4541 15.8525 15.4391 16 15.4391C16.148 15.4391 16.292 15.4546 16.4315 15.4826C16.4955 15.4956 16.5545 15.5201 16.6165 15.5386C16.6885 15.5601 16.7625 15.5766 16.831 15.6056C16.918 15.6416 16.9975 15.6896 17.0785 15.7361C17.1155 15.7576 17.1555 15.7736 17.191 15.7971C17.2895 15.8616 17.379 15.9366 17.4655 16.0161C17.478 16.0276 17.4925 16.0366 17.5045 16.0486C17.8955 16.4226 18.142 16.9396 18.1705 17.5151H26.5605C27.665 17.5151 28.5605 16.6196 28.5605 15.5151V10.8986C28.561 9.7976 27.6235 8.8976 26.4775 8.8976ZM12.248 8.8976C12.503 8.1271 13.2215 7.5656 14.0765 7.5656H17.923C18.778 7.5656 19.4965 8.1271 19.7515 8.8976H12.248Z" fill="#F0145A"/>
</svg>

<svg xmlns="http://www.w3.org/2000/svg" width="32" height="32" fill="none"><path fill="#F0145A" d="M17.232 18.332v-.558a1.232 1.232 0 1 0-2.463 0v.558a1.232 1.232 0 1 0 2.463 0Z"/><path fill="#F0145A" d="M18.077 19.014A2.177 2.177 0 0 1 16 20.564a2.177 2.177 0 0 1-2.077-1.55H5.44a3.47 3.47 0 0 1-1.496-.34v5.633c0 1.1.9 2 2 2h20.113c1.1 0 2-.9 2-2v-5.633c-.454.216-.96.34-1.495.34h-8.484ZM26.477 8.898h-4.8a3.809 3.809 0 0 0-3.754-3.204h-3.846a3.81 3.81 0 0 0-3.755 3.204h-4.8c-1.146 0-2.083.9-2.083 2v4.616a2 2 0 0 0 2 2h8.39a2.171 2.171 0 0 1 .666-1.466c.012-.012.026-.02.039-.032.086-.08.176-.154.274-.22.036-.023.075-.039.112-.06.081-.046.161-.095.248-.13.069-.03.143-.046.215-.067.062-.019.121-.043.186-.056a2.155 2.155 0 0 1 .862 0c.064.013.123.037.185.056.073.021.146.038.215.067.087.036.166.084.247.13.038.022.078.038.113.061.099.065.188.14.274.22.013.01.027.02.04.032.39.374.637.89.666 1.466h8.39a2 2 0 0 0 2-2V10.9c0-1.101-.938-2.001-2.084-2.001Zm-14.229 0a1.93 1.93 0 0 1 1.829-1.332h3.846a1.93 1.93 0 0 1 1.829 1.332h-7.504Z"/></svg>
